!!!!SEGMENT: pl-wn--sd-xvi-o-280_anonim--kancjonal-zamoyskich-psalm-dawidow-l-miserere-mei-smiluj-sienade-mna-boze.krn
!!!cenid: 15xx:835
!!!COM: Anonim
!!!COM-rismid: pe30004985
!!!CDT:
!!!CNT:
!!!GTL: Kancjonał Zamoyskich
!!!OTL: Psalm Dawidów L Miserere mei/Smiłuj się nade mną Boże
!!!PDT: 1558
!!!AGN:
!!!SMS-siglum: PL-Wn
!!!SMS-shelfmark: SD XVI.O.280
!!!SMS-shelfwork: G
!!!SMS-variant:
!!!SMS-altvar:
!!!NIFC-rismid: 990072218
!!!system-decoration: [(s1,s2,s3)]
**kern	**kern	**text	**text	**kern	**text	**text
*part3	*part2	*part2	*part2	*part1	*part1	*part1
*staff3	*staff2	*staff2	*staff2	*staff1	*staff1	*staff1
*Iempty	*Itenor	*	*	*Isoprn	*	*
*I"BASUS.	*I"TENOR.	*	*	*I"CANTUS.	*	*
*I'B.	*I'T.	*	*	*I'C.	*	*
*clefF4	*clefC4	*	*	*clefC2	*	*
*k[]	*k[]	*	*	*k[]	*	*
*a:	*a:	*	*	*a:	*	*
*M2/1	*M2/1	*	*	*M2/1	*	*
*met(C|)	*met(C|)	*	*	*met(C|)	*	*
*>[A,A,B,B]	*>[A,A,B,B]	*	*	*>[A,A,B,B]	*	*
=1-	=1-	=1-	=1-	=1-	=1-	=1-
*>A	*>A	*	*	*>A	*	*
0E	0E	Smi-	We-	0B	Smi-	We-
=2-	=2-	=2-	=2-	=2-	=2-	=2-
1E	1G	-łuy	-dle	1g	.	.
1E	1G	się	twe-	1g	-łuy	-dle
=3-	=3-	=3-	=3-	=3-	=3-	=3-
2AA/	1A	na-	-go	1a	ſie	two-
2C/	.	.	.	.	.	.
2BB/	1B	-de-	wiel-	4b\	na-	-ie-
.	.	.	.	4a\	.	.
2GG/	.	.	.	4g\	.	.
.	.	.	.	4f\	.	.
=4-	=4-	=4-	=4-	=4-	=4-	=4-
2C/	1c	-mną	-kie-	2e\	-de	-go
2AA/	.	.	.	1f	mną	wiel-
1E	1B	bo-	.	.	.	.
.	.	.	.	2e\	bo-	-kie-
=5-	=5-	=5-	=5-	=5-	=5-	=5-
2.F\	1A	-że	-go	2f\	-że/	-go/
.	.	.	.	1a	in-	Mi-
4G\	.	.	.	.	.	.
2A\	2r	.	.	.	.	.
1G\	2G/	in-	mi-	2g\	-ſzyć	-ło-
=6-	=6-	=6-	=6-	=6-	=6-	=6-
.	1c	-szyć	-ło-	1f	mi	-ſier-
2F\	.	.	.	.	.	.
!LO:SIC:v:t=custos C	!	!	!	!LO:SIC:v:t=custos e	!	!
1G	1B	mi	-ſier-	1e	w tym	-dźia
!LO:LB:g=original	!	!	!	!LO:LB:g=original	!	!
=7-	=7-	=7-	=7-	=7-	=7-	=7-
1C	1c	w tym	-dzia	2e/	nie	nie-
.	.	.	.	1f	.	.
2D/	1A	nie	nie-	.	.	.
2F\	.	.	.	2d/	po-	-źmier-
=8-	=8-	=8-	=8-	=8-	=8-	=8-
!	!LO:SIC:v:t=custos F	!	!	!	!	!
2E\	1G	po-	-zmier-	2e/	.	.
2C/	.	.	.	1c	-mo-	-ne-
!	!LO:LB:g=original	!	!	!	!	!
!LO:TX:a:t=P:problem:w źródle błędnie wpisana w tym miejscu repetycja	!	!	!	!	!	!
1D	1F	-mo-	-ne-	.	.	.
.	.	.	.	2B/	.	.
=9-	=9-	=9-	=9-	=9-	=9-	=9-
2.AA/	1E	-że.	-go/	1c	-że	-go
4BB/	.	.	.	.	.	.
4C/	2r	.	.	2r	.	.
4AA/	.	.	.	.	.	.
!	!LO:TX:b:B:t=Repetitur.	!	!	!LO:TX:a:B:t=Repetitur.	!	!
!	!LO:TX:a:t=P:problem:podwójna kreska pseudotaktowa z repetycją	!	!	!LO:TX:a:t=P:problem:podwójna kreska pseudotaktowa z repetycją	!	!
!LO:TX:a:t=P:problem:brak podwójnej kreski pseudotaktowej z repetycją; w źródle wpisana błędnie w innym miejscu	!	!	!	!	!	!
2C/	2E/	.	y	2c/	I	.
=10:|!|:	=10:|!|:	=10:|!|:	=10:|!|:	=10:|!|:	=10:|!|:	=10:|!|:
*>B	*>B	*	*	*>B	*	*
2D/	1A	.	te-	2d/	te-	.
2.AA/	.	.	.	2c/	.	.
.	1A	.	-że	2A/	-że	.
4BB/	.	.	.	.	.	.
4C/	.	.	.	1a\	pod-	.
!LO:SIC:v:t=custos C	!	!	!	!	!	!
4AA/	.	.	.	.	.	.
!LO:LB:g=original	!	!	!	!	!	!
=11-	=11-	=11-	=11-	=11-	=11-	=11-
4C/	1G	.	po-	.	.	.
4D/	.	.	.	.	.	.
2E/	.	.	.	2g\	.	.
2F\	1c	.	-dług	1f	-ług	.
2A\	.	.	.	.	.	.
=12-	=12-	=12-	=12-	=12-	=12-	=12-
2G\	2B\	.	wiel-	2B/	wiel-	.
!	!	!	!	!LO:SIC:v:t=custos d	!	!
2E\	2G/	.	-ko-	1e	-ko-	.
1D	1A	.	.	.	.	.
!	!	!	!	!LO:LB:g=original	!	!
.	.	.	.	2d/	.	.
=13-	=13-	=13-	=13-	=13-	=13-	=13-
1GG	1G	.	-ſci/	1e	-ſci	.
2r	2r	.	.	2r	.	.
2C/	2G/	.	ſmi-	2e/	ſmi-	.
=14-	=14-	=14-	=14-	=14-	=14-	=14-
2.C/	1c	.	-ło-	1e	-ło-	.
4D/	.	.	.	.	.	.
!	!LO:SIC:v:t=custos A	!	!	!	!	!
1E	1G	.	-wa-	1e	-wa-	.
!	!LO:LB:g=original	!	!	!	!	!
=15-	=15-	=15-	=15-	=15-	=15-	=15-
2.AA/	1A	.	-nia	2c/	-nia	.
.	.	.	.	2f\	twey	.
4BB/	.	.	.	.	.	.
2C/	2E/	.	twey	2e/	.	.
!LO:SIC:v:t=custos AA	!	!	!	!	!	!
2D/	1A\	.	mi-	1d/	mi-	.
!LO:LB:g=original	!	!	!	!	!	!
=16-	=16-	=16-	=16-	=16-	=16-	=16-
2AA/	.	.	.	.	.	.
2C/	2G/	.	-ło-	1c	-ło-	.
1D	1F	.	.	.	.	.
.	.	.	.	2B/	.	.
=17-	=17-	=17-	=17-	=17-	=17-	=17-
2r	1E	.	-sſci/	1c	-ſci/	.
2AA/	.	.	.	.	.	.
1.C	2r	.	.	2r	.	.
.	2E/	.	zgładź	2c/	zgładź	.
=18-	=18-	=18-	=18-	=18-	=18-	=18-
.	1A	.	wszy-	1c	wſzy-	.
2AA/	.	.	.	.	.	.
1D	1A	.	-tki	1d	-tki	.
=19-	=19-	=19-	=19-	=19-	=19-	=19-
!	!	!	!	!LO:SIC:v:t=custos e	!	!
1GG	1G	.	nie-	2B/	nie-	.
!	!	!	!	!LO:LB:g=original	!	!
.	.	.	.	2.e/	-pra-	.
1C	1E	.	-pra-	.	.	.
.	.	.	.	4d/	.	.
.	.	.	.	2c/	.	.
=20-	=20-	=20-	=20-	=20-	=20-	=20-
2r	2F/	.	-wo-	2B/	wo-	.
!	!LO:SIC:v:t=custos D	!	!	!	!	!
2C/	2E/	.	-sci	1A	-ſci	.
!	!LO:LB:g=original	!	!	!	!	!
1GG	1D	.	mo-	.	.	.
.	.	.	.	2G/	mo-	.
=21-	=21-	=21-	=21-	=21-	=21-	=21-
2.C/	1C	.	-ie/	1A	-ie/	.
4D/	.	.	.	.	.	.
4E/	2r	.	.	2r	.	.
4F\	.	.	.	.	.	.
2.G\	2C/	.	o-	2A/	o-	.
=22-	=22-	=22-	=22-	=22-	=22-	=22-
.	1G	.	-każ	2B/	.	.
4F\	.	.	.	.	.	.
!LO:SIC:v:t=custos:problem:wytarty	!	!	!	!	!	!
2E\	.	.	.	2c/	ka-	.
!LO:LB:g=original	!	!	!	!	!	!
2D/	1A	.	w tym	1d	.	.
2F\	.	.	.	.	.	.
=23-	=23-	=23-	=23-	=23-	=23-	=23-
1E	1B	.	ła-	1e	-ży	.
2.AA/	1c	.	-ske	2.f\	w tym	.
!	!	!	!	!LO:SIC:v:t=custos c	!	!
4BB/	.	.	.	4e\	.	.
!	!	!	!	!LO:LB:g=original	!	!
=24-	=24-	=24-	=24-	=24-	=24-	=24-
1C	1G	.	swo-	2c/	ła-	.
.	.	.	.	2e\	-ſke	.
1AA	1A	.	.	2d/	swo-	.
.	.	.	.	1c/	.	.
=25-	=25-	=25-	=25-	=25-	=25-	=25-
0D	0F	.	.	.	.	.
.	.	.	.	4B/	.	.
.	.	.	.	4A/	.	.
.	.	.	.	1B	.	.
=26-	=26-	=26-	=26-	=26-	=26-	=26-
!	!LO:N:vis=1	!	!	!	!	!
2r	00.E	.	-ie.	00.c	-ie.	.
2.AA/	.	.	.	.	.	.
4BB/	.	.	.	.	.	.
4C/	.	.	.	.	.	.
4AA/	.	.	.	.	.	.
=27-	=27-	=27-	=27-	=27-	=27-	=27-
4C/	.	.	.	.	.	.
4D/	.	.	.	.	.	.
4E/	.	.	.	.	.	.
4F\	.	.	.	.	.	.
2.G\	.	.	.	.	.	.
4E\	.	.	.	.	.	.
=28-	=28-	=28-	=28-	=28-	=28-	=28-
0El\	.	.	.	.	.	.
==	==	==	==	==	==	==
*-	*-	*-	*-	*-	*-	*-
!!title: @{OTL};
!!!RDF**kern: > = above
!!!RDF**kern: < = below
!!!RDF**kern: | = vertical stroke
!!!RDF**kern: N = linked
!!!RDF**kern: i = editorial accidental
!!!RDF**kern: l = terminal long
!!!AIN: 1 empty 1 soprn 1 tenor
!!!ENC: Berenika Jozajtis
!!!END: 2022-05-01
!!!EED: Wojciech Jakubiak-Danek
!!!EEV: 2022-05-10
!!!URL-scan: https://polona.pl/item/psalm-dawidow-l-miserere-mei-deus-secu-n-dum-magnam-misericordiam-tuam-etc,MTE3MTY3OA/3/#info:metadata
!!!ONB-nifc: UWAGA: proszę zapisywać tylko teksty występujące bezpośrednio pod nutami
